X:1
T:Minas Gerais, 11.10.11.10
T:Minas Gerais, 11.10.11.10
T:Ira David Sankey, 1891
T:Public Domain Courtesy of the Cyber Hymnal™
C:Ira David Sankey, 1891
Z:Public Domain
Z:Courtesy of the Cyber Hymnal™
%%score 1 2
L:1/8
Q:1/4=115
M:4/4
K:Ab
V:1 treble 
V:2 bass 
V:1
 [Ec]4 [DB]2 [Ec]2 | [CA]4 [CE]4 | [DF]2 [FA]2 [EG]2 [DF]2 | [DF]4 [CE]4 | [DF]4 [DG]2 [CA]2 | %5
 [CA]4 [Ec]4 | [=Dc]2 [DB]2 [DB]2 [DA]2 | [EB]8 | [Ec]4 [DB]2 [Ec]2 | [CA]4 [CE]4 | %10
 [DF]2 [FA]2 [EG]2 [DF]2 | [DF]4 [CE]4 | [DF]4 [EG]2 [FA]2 | [EA]4 [Ec]4 | %14
 [Fc]2 [FB]2 [EA]2 [DG]2 | [CA]8 |] %16
V:2
 [A,,A,]4 [A,,A,]2 [A,,A,]2 | [A,,E,]4 [A,,A,]4 | [D,A,]2 [D,F,]2 [D,G,]2 [D,A,]2 | %3
 [A,,A,]4 [A,,A,]4 | [D,A,]4 [B,,E,]2 [A,,E,]2 | [A,,E,]4 [A,,A,]4 | %6
 [B,,F,]2 [B,,F,]2 [B,,F,]2 [B,,B,]2 | [E,G,]8 | [A,,A,]4 [A,,A,]2 [A,,A,]2 | [A,,E,]4 [A,,A,]4 | %10
 [D,A,]2 [D,F,]2 [D,G,]2 [D,A,]2 | [A,,A,]4 [A,,A,]4 | [D,A,]4 [D,A,]2 [D,A,]2 | [C,A,]4 [A,,A,]4 | %14
 [D,A,]2 [D,D]2 [E,C]2 [E,B,]2 | [A,,A,]8 |] %16

